X: 3
T: The Peacock's Feathers
R: hornpipe
M: 4/4
L: 1/8
K: Gmaj
|:cABG AAAB|cABc d2cd|eaaa aged|cEEF G2ed|cABG AAAB|cABc d2cd|eaab aged|[1cAAG A2ed:|[2cAAG A3G|ggge aaag|agec d2cd|eaag aged|ccEF G2ed|cABG AAAB|cABc d2cd|eaag aged|[1ccAG A3G|[2ccAG A2ed|


Tune 663	Setting 29177

